Menda-Circle/apps/48x48/apps/epoptes.svg

<svg viewBox="0 0 48 48" xmlns:xlink="http://www.w3.org/1999/xlink"><defs><linearGradient id="linearGradient3764" x1="1" x2="47" gradientUnits="userSpaceOnUse" gradientTransform="matrix(0,-1,1,0,-1.5e-6,47.999998)"><stop stop-color="#96d250" stop-opacity="1"/><stop offset="1" stop-color="#a0d660" stop-opacity="1"/></linearGradient><clipPath id="clipPath-785062704"><g transform="translate(0,-1004.3622)"><path d="m -24 13 c 0 1.105 -0.672 2 -1.5 2 -0.828 0 -1.5 -0.895 -1.5 -2 0 -1.105 0.672 -2 1.5 -2 0.828 0 1.5 0.895 1.5 2 z" transform="matrix(15.333333,0,0,11.5,414.99999,878.8622)" fill="#1890d0"/></g></clipPath><clipPath id="clipPath-800786167"><g transform="translate(0,-1004.3622)"><path d="m -24 13 c 0 1.105 -0.672 2 -1.5 2 -0.828 0 -1.5 -0.895 -1.5 -2 0 -1.105 0.672 -2 1.5 -2 0.828 0 1.5 0.895 1.5 2 z" transform="matrix(15.333333,0,0,11.5,414.99999,878.8622)" fill="#1890d0"/></g></clipPath><filter id="alpha" filterUnits="objectBoundingBox" x="0" y="0" width="48" height="48"><feColorMatrix type="matrix" in="SourceGraphic" values="0 0 0 0 1 0 0 0 0 1 0 0 0 0 1 0 0 0 1 0"/></filter><mask id="mask0"><g filter="url(#alpha)"><use xlink:href="#image11"/></g></mask><clipPath id="clip1"><rect width="48" height="48"/></clipPath><mask id="mask1"><g filter="url(#alpha)"><use xlink:href="#image19"/></g></mask><clipPath id="clip2"><rect width="48" height="48"/></clipPath><filter id="alpha" filterUnits="objectBoundingBox" x="0" y="0" width="48" height="48"><feColorMatrix type="matrix" in="SourceGraphic" values="0 0 0 0 1 0 0 0 0 1 0 0 0 0 1 0 0 0 1 0"/></filter><mask id="mask0"><g filter="url(#alpha)"><use xlink:href="#image11"/></g></mask><clipPath id="clip1"><rect width="48" height="48"/></clipPath><mask id="mask1"><g filter="url(#alpha)"><use xlink:href="#image19"/></g></mask><clipPath id="clip2"><rect width="48" height="48"/></clipPath><image id="image11" width="48" height="48" xlink:href="data:image/png;base64,iVBORw0KGgoAAAANSUhEUgAAADAAAAAwCAYAAABXAvmHAAAABmJLR0QA/wD/AP+gvaeTAAAAZUlEQVRoge3RIQ6AMBBE0Q+sq8EgSTgaR69HV5C0CZYLLJj/1KqZTBYkSZIkSZL+MGUFL6VstfcCcES00dqV0RMZoQC193KOsQJUYIeUAXNG6JfSPnBEtPq6ue+sKkmSJEmSpB88WJMUTXHEZaUAAAAASUVORK5CYII="/><g id="surface13" clip-path="url(#clip1)"><path d="m 25.875 24 c 0 1.035 -0.84 1.875 -1.875 1.875 c -1.035 0 -1.875 -0.84 -1.875 -1.875 c 0 -1.035 0.84 -1.875 1.875 -1.875 c 1.035 0 1.875 0.84 1.875 1.875 m 0 0" fill="#f9f9f9" stroke="none" fill-rule="nonzero" fill-opacity="1"/></g><image id="image19" width="48" height="48" xlink:href="data:image/png;base64,iVBORw0KGgoAAAANSUhEUgAAADAAAAAwCAYAAABXAvmHAAAABmJLR0QA/wD/AP+gvaeTAAAARklEQVRoge3PwQmAQAxFwVW2IHuwbnvYgnKwAk9BQtiZa+CHNwYAAEBTx98P7jmvr9sTsbL7Z3agmoBqAqq1DwAAAABgTy/JMQQOuEYdrAAAAABJRU5ErkJggg=="/><g id="surface21" clip-path="url(#clip2)"><path d="m 31.29 20.465 c 0 2.07 -1.68 3.75 -3.75 3.75 c -2.07 0 -3.75 -1.68 -3.75 -3.75 c 0 -2.07 1.68 -3.75 3.75 -3.75 c 2.07 0 3.75 1.68 3.75 3.75 m 0 0" fill="#f9f9f9" stroke="none" fill-rule="nonzero" fill-opacity="1"/></g><image id="image11" width="48" height="48" xlink:href="data:image/png;base64,iVBORw0KGgoAAAANSUhEUgAAADAAAAAwCAYAAABXAvmHAAAABmJLR0QA/wD/AP+gvaeTAAAAZUlEQVRoge3RIQ6AMBBE0Q+sq8EgSTgaR69HV5C0CZYLLJj/1KqZTBYkSZIkSZL+MGUFL6VstfcCcES00dqV0RMZoQC193KOsQJUYIeUAXNG6JfSPnBEtPq6ue+sKkmSJEmSpB88WJMUTXHEZaUAAAAASUVORK5CYII="/><g id="surface13" clip-path="url(#clip1)"><path d="m 25.875 24 c 0 1.035 -0.84 1.875 -1.875 1.875 c -1.035 0 -1.875 -0.84 -1.875 -1.875 c 0 -1.035 0.84 -1.875 1.875 -1.875 c 1.035 0 1.875 0.84 1.875 1.875 m 0 0" fill="#000" stroke="none" fill-rule="nonzero" fill-opacity="1"/></g><image id="image19" width="48" height="48" xlink:href="data:image/png;base64,iVBORw0KGgoAAAANSUhEUgAAADAAAAAwCAYAAABXAvmHAAAABmJLR0QA/wD/AP+gvaeTAAAARklEQVRoge3PwQmAQAxFwVW2IHuwbnvYgnKwAk9BQtiZa+CHNwYAAEBTx98P7jmvr9sTsbL7Z3agmoBqAqq1DwAAAABgTy/JMQQOuEYdrAAAAABJRU5ErkJggg=="/><g id="surface21" clip-path="url(#clip2)"><path d="m 31.29 20.465 c 0 2.07 -1.68 3.75 -3.75 3.75 c -2.07 0 -3.75 -1.68 -3.75 -3.75 c 0 -2.07 1.68 -3.75 3.75 -3.75 c 2.07 0 3.75 1.68 3.75 3.75 m 0 0" fill="#000" stroke="none" fill-rule="nonzero" fill-opacity="1"/></g><path id="SVGCleanerId_0" d="M 24 24 L 24 36.5 L 22.75 24 M 24 24 " stroke="none" fill-rule="nonzero" fill-opacity="1"/><path id="SVGCleanerId_1" d="M 24 24 L 36.5 24 L 24 25.25 M 24 24 " stroke="none" fill-rule="nonzero" fill-opacity="1"/><path id="SVGCleanerId_2" d="M 24 24 L 24 11.5 L 25.25 24 M 24 24 " stroke="none" fill-rule="nonzero" fill-opacity="1"/></defs><g><path d="m 36.31 5 c 5.859 4.062 9.688 10.831 9.688 18.5 c 0 12.426 -10.07 22.5 -22.5 22.5 c -7.669 0 -14.438 -3.828 -18.5 -9.688 c 1.037 1.822 2.306 3.499 3.781 4.969 c 4.085 3.712 9.514 5.969 15.469 5.969 c 12.703 0 23 -10.298 23 -23 c 0 -5.954 -2.256 -11.384 -5.969 -15.469 c -1.469 -1.475 -3.147 -2.744 -4.969 -3.781 z m 4.969 3.781 c 3.854 4.113 6.219 9.637 6.219 15.719 c 0 12.703 -10.297 23 -23 23 c -6.081 0 -11.606 -2.364 -15.719 -6.219 c 4.16 4.144 9.883 6.719 16.219 6.719 c 12.703 0 23 -10.298 23 -23 c 0 -6.335 -2.575 -12.06 -6.719 -16.219 z" opacity="0.05"/><path d="m 41.28 8.781 c 3.712 4.085 5.969 9.514 5.969 15.469 c 0 12.703 -10.297 23 -23 23 c -5.954 0 -11.384 -2.256 -15.469 -5.969 c 4.113 3.854 9.637 6.219 15.719 6.219 c 12.703 0 23 -10.298 23 -23 c 0 -6.081 -2.364 -11.606 -6.219 -15.719 z" opacity="0.1"/><path d="m 31.25 2.375 c 8.615 3.154 14.75 11.417 14.75 21.13 c 0 12.426 -10.07 22.5 -22.5 22.5 c -9.708 0 -17.971 -6.135 -21.12 -14.75 a 23 23 0 0 0 44.875 -7 a 23 23 0 0 0 -16 -21.875 z" opacity="0.2"/></g><g><path d="m 24 1 c 12.703 0 23 10.297 23 23 c 0 12.703 -10.297 23 -23 23 -12.703 0 -23 -10.297 -23 -23 0 -12.703 10.297 -23 23 -23 z" fill="url(#linearGradient3764)" fill-opacity="1"/></g><g/><g><g clip-path="url(#clipPath-785062704)"><g transform="translate(1,1)"><g opacity="0.1"><!-- color: #a0d660 --><g><path d="m 39 24 c 0 8.285 -6.715 15 -15 15 c -8.285 0 -15 -6.715 -15 -15 c 0 -8.285 6.715 -15 15 -15 c 8.285 0 15 6.715 15 15 m 0 0" fill="#000" stroke="none" fill-rule="nonzero" fill-opacity="1"/><path d="m 36.5 24 c 0 6.906 -5.598 12.5 -12.5 12.5 c -6.902 0 -12.5 -5.598 -12.5 -12.5 c 0 -6.902 5.598 -12.5 12.5 -12.5 c 6.906 0 12.5 5.598 12.5 12.5 m 0 0" fill="#000" stroke="none" fill-rule="nonzero" fill-opacity="1"/><use fill="#000" xlink:href="#SVGCleanerId_0"/><use fill="#000" xlink:href="#SVGCleanerId_2"/><use fill="#000" xlink:href="#SVGCleanerId_1"/><path d="m 24 24 l -12.5 0 l 12.5 -1.246 m 0 1.246" fill="#000" stroke="none" fill-rule="nonzero" fill-opacity="1" id="SVGCleanerId_3"/><use fill="#000" xlink:href="#SVGCleanerId_0"/><use fill="#000" xlink:href="#SVGCleanerId_2"/><use fill="#000" xlink:href="#SVGCleanerId_1"/><use xlink:href="#SVGCleanerId_3"/><path d="m 24 24 l 3.234 12.07 l -4.441 -11.75 m 1.207 -0.324" fill="#000" stroke="none" fill-rule="nonzero" fill-opacity="1"/><path d="m 24 24 l -3.234 -12.07 l 4.441 11.75 m -1.207 0.324" fill="#000" stroke="none" fill-rule="nonzero" fill-opacity="1"/><path d="m 24 24 l 12.07 -3.234 l -11.75 4.441 m -0.324 -1.207" fill="#000" stroke="none" fill-rule="nonzero" fill-opacity="1"/><path d="m 24 24 l -12.07 3.238 l 11.75 -4.441 m 0.324 1.203" fill="#000" stroke="none" fill-rule="nonzero" fill-opacity="1"/><path d="m 24 24 l 6.25 10.824 l -7.332 -10.199 m 1.082 -0.625" fill="#000" stroke="none" fill-rule="nonzero" fill-opacity="1"/><path d="m 24 24 l -6.25 -10.824 l 7.332 10.199 m -1.082 0.625" fill="#000" stroke="none" fill-rule="nonzero" fill-opacity="1"/><path d="M 24 24 L 34.824219 17.75 L 24.625 25.082031 M 24 24 " fill="#000" stroke="none" fill-rule="nonzero" fill-opacity="1"/><path d="m 24 24 l -10.824 6.25 l 10.199 -7.328 m 0.625 1.078" fill="#000" stroke="none" fill-rule="nonzero" fill-opacity="1"/><path d="m 24 24 l 8.84 8.84 l -9.723 -7.957 m 0.883 -0.883" fill="#000" stroke="none" fill-rule="nonzero" fill-opacity="1"/><path d="m 24 24 l -8.84 -8.84 l 9.723 7.957 m -0.883 0.883" fill="#000" stroke="none" fill-rule="nonzero" fill-opacity="1"/><path d="m 24 24 l 8.84 -8.84 l -7.957 9.723 m -0.883 -0.883" fill="#000" stroke="none" fill-rule="nonzero" fill-opacity="1"/><path d="m 24 24 l -8.84 8.836 l 7.957 -9.723 m 0.883 0.887" fill="#000" stroke="none" fill-rule="nonzero" fill-opacity="1"/><path d="m 24 24 l 10.824 6.25 l -11.449 -5.168 m 0.625 -1.082" fill="#000" stroke="none" fill-rule="nonzero" fill-opacity="1"/><path d="m 24 24 l -10.824 -6.25 l 11.449 5.168 m -0.625 1.082" fill="#000" stroke="none" fill-rule="nonzero" fill-opacity="1"/><path d="M 24 24 L 30.25 13.175781 L 25.082031 24.625 M 24 24 " fill="#000" stroke="none" fill-rule="nonzero" fill-opacity="1"/><path d="m 24 24 l -6.25 10.824 l 5.168 -11.449 m 1.082 0.625" fill="#000" stroke="none" fill-rule="nonzero" fill-opacity="1"/><path d="m 24 24 l 12.07 3.234 l -12.398 -2.027 m 0.324 -1.207" fill="#000" stroke="none" fill-rule="nonzero" fill-opacity="1"/><path d="m 24 24 l -12.07 -3.234 l 12.398 2.027 m -0.324 1.207" fill="#000" stroke="none" fill-rule="nonzero" fill-opacity="1"/><path d="m 24 24 l 3.234 -12.07 l -2.027 12.398 m -1.207 -0.324" fill="#000" stroke="none" fill-rule="nonzero" fill-opacity="1"/><path d="m 24 24 l -3.234 12.07 l 2.027 -12.395 m 1.207 0.324" fill="#000" stroke="none" fill-rule="nonzero" fill-opacity="1"/><path d="m 30.25 24 c 0 3.453 -2.797 6.25 -6.25 6.25 c -3.453 0 -6.25 -2.797 -6.25 -6.25 c 0 -3.453 2.801 -6.25 6.25 -6.25 c 3.453 0 6.25 2.801 6.25 6.25 m 0 0" fill="#000" stroke="none" fill-rule="nonzero" fill-opacity="1"/><path d="m 29 24 c 0 2.762 -2.238 5 -5 5 c -2.762 0 -5 -2.238 -5 -5 c 0 -2.762 2.238 -5 5 -5 c 2.762 0 5 2.238 5 5 m 0 0" fill="#000" stroke="none" fill-rule="nonzero" fill-opacity="1"/><path d="m 27.32 11.969 c 0.496 0.137 0.969 0.27 1.445 0.469 c -0.465 -0.191 -0.957 -0.332 -1.445 -0.469 m 2.93 1.211 l -5 8.672 c 0.746 0.434 1.25 1.223 1.25 2.148 l 10 0 c 0 -4.633 -2.512 -8.66 -6.25 -10.82 m 0 0" fill="#000" stroke="none" fill-rule="nonzero" fill-opacity="0.2"/><use xlink:href="#surface13" mask="url(#mask0)"/><use xlink:href="#surface21" mask="url(#mask1)"/></g></g></g></g></g><g><g clip-path="url(#clipPath-800786167)"><!-- color: #a0d660 --><g><path d="m 39 24 c 0 8.285 -6.715 15 -15 15 c -8.285 0 -15 -6.715 -15 -15 c 0 -8.285 6.715 -15 15 -15 c 8.285 0 15 6.715 15 15 m 0 0" fill="#333" stroke="none" fill-rule="nonzero" fill-opacity="1"/><path d="m 36.5 24 c 0 6.906 -5.598 12.5 -12.5 12.5 c -6.902 0 -12.5 -5.598 -12.5 -12.5 c 0 -6.902 5.598 -12.5 12.5 -12.5 c 6.906 0 12.5 5.598 12.5 12.5 m 0 0" fill="#45a326" stroke="none" fill-rule="nonzero" fill-opacity="1"/><use fill="#333" xlink:href="#SVGCleanerId_0"/><path d="M 24 24 L 24 11.5 L 25.25 24 M 24 24 " fill="#333" stroke="none" fill-rule="nonzero" fill-opacity="1"/><use fill="#333" xlink:href="#SVGCleanerId_1"/><path d="m 24 24 l -12.5 0 l 12.5 -1.246 m 0 1.246" fill="#333" stroke="none" fill-rule="nonzero" fill-opacity="1"/><use fill="#784420" xlink:href="#SVGCleanerId_0"/><use fill="#784420" xlink:href="#SVGCleanerId_2"/><use fill="#784420" xlink:href="#SVGCleanerId_1"/><path d="m 24 24 l -12.5 0 l 12.5 -1.246 m 0 1.246" fill="#784420" stroke="none" fill-rule="nonzero" fill-opacity="1"/><path d="m 24 24 l 3.234 12.07 l -4.441 -11.75 m 1.207 -0.324" fill="#333" stroke="none" fill-rule="nonzero" fill-opacity="1"/><path d="m 24 24 l -3.234 -12.07 l 4.441 11.75 m -1.207 0.324" fill="#333" stroke="none" fill-rule="nonzero" fill-opacity="1"/><path d="m 24 24 l 12.07 -3.234 l -11.75 4.441 m -0.324 -1.207" fill="#333" stroke="none" fill-rule="nonzero" fill-opacity="1"/><path d="m 24 24 l -12.07 3.238 l 11.75 -4.441 m 0.324 1.203" fill="#333" stroke="none" fill-rule="nonzero" fill-opacity="1"/><path d="m 24 24 l 6.25 10.824 l -7.332 -10.199 m 1.082 -0.625" fill="#333" stroke="none" fill-rule="nonzero" fill-opacity="1"/><path d="m 24 24 l -6.25 -10.824 l 7.332 10.199 m -1.082 0.625" fill="#333" stroke="none" fill-rule="nonzero" fill-opacity="1"/><path d="M 24 24 L 34.824219 17.75 L 24.625 25.082031 M 24 24 " fill="#333" stroke="none" fill-rule="nonzero" fill-opacity="1"/><path d="m 24 24 l -10.824 6.25 l 10.199 -7.328 m 0.625 1.078" fill="#333" stroke="none" fill-rule="nonzero" fill-opacity="1"/><path d="m 24 24 l 8.84 8.84 l -9.723 -7.957 m 0.883 -0.883" fill="#784420" stroke="none" fill-rule="nonzero" fill-opacity="1"/><path d="m 24 24 l -8.84 -8.84 l 9.723 7.957 m -0.883 0.883" fill="#784420" stroke="none" fill-rule="nonzero" fill-opacity="1"/><path d="m 24 24 l 8.84 -8.84 l -7.957 9.723 m -0.883 -0.883" fill="#333" stroke="none" fill-rule="nonzero" fill-opacity="1"/><path d="m 24 24 l -8.84 8.836 l 7.957 -9.723 m 0.883 0.887" fill="#333" stroke="none" fill-rule="nonzero" fill-opacity="1"/><path d="m 24 24 l 10.824 6.25 l -11.449 -5.168 m 0.625 -1.082" fill="#333" stroke="none" fill-rule="nonzero" fill-opacity="1"/><path d="m 24 24 l -10.824 -6.25 l 11.449 5.168 m -0.625 1.082" fill="#333" stroke="none" fill-rule="nonzero" fill-opacity="1"/><path d="M 24 24 L 30.25 13.175781 L 25.082031 24.625 M 24 24 " fill="#333" stroke="none" fill-rule="nonzero" fill-opacity="1"/><path d="m 24 24 l -6.25 10.824 l 5.168 -11.449 m 1.082 0.625" fill="#333" stroke="none" fill-rule="nonzero" fill-opacity="1"/><path d="m 24 24 l 12.07 3.234 l -12.398 -2.027 m 0.324 -1.207" fill="#333" stroke="none" fill-rule="nonzero" fill-opacity="1"/><path d="m 24 24 l -12.07 -3.234 l 12.398 2.027 m -0.324 1.207" fill="#333" stroke="none" fill-rule="nonzero" fill-opacity="1"/><path d="m 24 24 l 3.234 -12.07 l -2.027 12.398 m -1.207 -0.324" fill="#333" stroke="none" fill-rule="nonzero" fill-opacity="1"/><path d="m 24 24 l -3.234 12.07 l 2.027 -12.395 m 1.207 0.324" fill="#333" stroke="none" fill-rule="nonzero" fill-opacity="1"/><path d="m 30.25 24 c 0 3.453 -2.797 6.25 -6.25 6.25 c -3.453 0 -6.25 -2.797 -6.25 -6.25 c 0 -3.453 2.801 -6.25 6.25 -6.25 c 3.453 0 6.25 2.801 6.25 6.25 m 0 0" fill="#333" stroke="none" fill-rule="nonzero" fill-opacity="1"/><path d="m 29 24 c 0 2.762 -2.238 5 -5 5 c -2.762 0 -5 -2.238 -5 -5 c 0 -2.762 2.238 -5 5 -5 c 2.762 0 5 2.238 5 5 m 0 0" fill="#aa8600" stroke="none" fill-rule="nonzero" fill-opacity="1"/><path d="m 27.32 11.969 c 0.496 0.137 0.969 0.27 1.445 0.469 c -0.465 -0.191 -0.957 -0.332 -1.445 -0.469 m 2.93 1.211 l -5 8.672 c 0.746 0.434 1.25 1.223 1.25 2.148 l 10 0 c 0 -4.633 -2.512 -8.66 -6.25 -10.82 m 0 0" fill="#f9f9f9" stroke="none" fill-rule="nonzero" fill-opacity="0.2"/><use xlink:href="#surface13" mask="url(#mask0)"/><use xlink:href="#surface21" mask="url(#mask1)"/></g></g></g><g><path d="m 40.03 7.531 c 3.712 4.084 5.969 9.514 5.969 15.469 0 12.703 -10.297 23 -23 23 c -5.954 0 -11.384 -2.256 -15.469 -5.969 4.178 4.291 10.01 6.969 16.469 6.969 c 12.703 0 23 -10.298 23 -23 0 -6.462 -2.677 -12.291 -6.969 -16.469 z" opacity="0.1"/></g></svg>

<svg xmlns="http://www.w3.org/2000/svg" xmlns:xlink="http://www.w3.org/1999/xlink" viewBox="0 0 48 48">
 <defs>
  <linearGradient id="linearGradient3764" x1="1" x2="47" gradientUnits="userSpaceOnUse" gradientTransform="matrix(0,-1,1,0,-1.5e-6,47.999998)">
   <stop style="stop-color:#96d250;stop-opacity:1"/>
   <stop offset="1" style="stop-color:#a0d660;stop-opacity:1"/>
  </linearGradient>
  <radialGradient xlink:href="#linearGradient4306" id="radialGradient4312" cx="19.4" cy="24" r="2" gradientUnits="userSpaceOnUse" gradientTransform="translate(4.6000004,1.1e-6)"/>
  <linearGradient id="linearGradient4306">
   <stop style="stop-color:#fff;stop-opacity:0.196"/>
   <stop offset="1" style="stop-color:#fff;stop-opacity:0.098"/>
  </linearGradient>
  <radialGradient xlink:href="#linearGradient4306" id="radialGradient4322" cx="17.5" cy="20.5" r="3.75" gradientUnits="userSpaceOnUse" gradientTransform="translate(10,3e-7)"/>
 </defs>
 <g>
  <path d="m 36.31 5 c 5.859 4.062 9.688 10.831 9.688 18.5 c 0 12.426 -10.07 22.5 -22.5 22.5 c -7.669 0 -14.438 -3.828 -18.5 -9.688 c 1.037 1.822 2.306 3.499 3.781 4.969 c 4.085 3.712 9.514 5.969 15.469 5.969 c 12.703 0 23 -10.298 23 -23 c 0 -5.954 -2.256 -11.384 -5.969 -15.469 c -1.469 -1.475 -3.147 -2.744 -4.969 -3.781 z m 4.969 3.781 c 3.854 4.113 6.219 9.637 6.219 15.719 c 0 12.703 -10.297 23 -23 23 c -6.081 0 -11.606 -2.364 -15.719 -6.219 c 4.16 4.144 9.883 6.719 16.219 6.719 c 12.703 0 23 -10.298 23 -23 c 0 -6.335 -2.575 -12.06 -6.719 -16.219 z" style="opacity:0.05"/>
  <path d="m 41.28 8.781 c 3.712 4.085 5.969 9.514 5.969 15.469 c 0 12.703 -10.297 23 -23 23 c -5.954 0 -11.384 -2.256 -15.469 -5.969 c 4.113 3.854 9.637 6.219 15.719 6.219 c 12.703 0 23 -10.298 23 -23 c 0 -6.081 -2.364 -11.606 -6.219 -15.719 z" style="opacity:0.1"/>
  <path d="m 31.25 2.375 c 8.615 3.154 14.75 11.417 14.75 21.13 c 0 12.426 -10.07 22.5 -22.5 22.5 c -9.708 0 -17.971 -6.135 -21.12 -14.75 a 23 23 0 0 0 44.875 -7 a 23 23 0 0 0 -16 -21.875 z" style="opacity:0.2"/>
 </g>
 <g>
  <path d="m 24 1 c 12.703 0 23 10.297 23 23 c 0 12.703 -10.297 23 -23 23 -12.703 0 -23 -10.297 -23 -23 0 -12.703 10.297 -23 23 -23 z" style="fill:url(#linearGradient3764);fill-opacity:1"/>
 </g>
 <g>
  <path d="m 40.03 7.531 c 3.712 4.084 5.969 9.514 5.969 15.469 0 12.703 -10.297 23 -23 23 c -5.954 0 -11.384 -2.256 -15.469 -5.969 4.178 4.291 10.01 6.969 16.469 6.969 c 12.703 0 23 -10.298 23 -23 0 -6.462 -2.677 -12.291 -6.969 -16.469 z" style="opacity:0.1"/>
 </g>
 <path d="m 40 25 c 0 8.285 -6.715 15 -15 15 -8.285 0 -15 -6.715 -15 -15 0 -8.285 6.715 -15 15 -15 8.285 0 15 6.715 15 15 m 0 0" style="fill:#000;opacity:0.1;fill-opacity:1;stroke:none;fill-rule:nonzero"/>
 <g>
  <g>
   <path d="m 39 24 c 0 8.285 -6.715 15 -15 15 -8.285 0 -15 -6.715 -15 -15 0 -8.285 6.715 -15 15 -15 8.285 0 15 6.715 15 15 m 0 0" style="fill:#333;fill-opacity:1;stroke:none;fill-rule:nonzero"/>
   <path d="m 36.5 24 c 0 6.906 -5.598 12.5 -12.5 12.5 -6.902 0 -12.5 -5.598 -12.5 -12.5 0 -6.902 5.598 -12.5 12.5 -12.5 6.906 0 12.5 5.598 12.5 12.5 m 0 0" style="fill:#45a326;fill-opacity:1;stroke:none;fill-rule:nonzero"/>
   <path d="M 24,24 24,11.5 25.25,24 M 24,24" style="fill:#784420;fill-opacity:1;stroke:none;fill-rule:nonzero"/>
   <path d="M 24,24 11.5,24 24,22.754 M 24,24" style="fill:#784420;fill-opacity:1;stroke:none;fill-rule:nonzero"/>
   <path d="M 24,24 27.234,36.07 22.793,24.32 M 24,23.996" style="fill:#333;fill-opacity:1;stroke:none;fill-rule:nonzero"/>
   <path d="M 24,24 20.766,11.93 25.207,23.68 M 24,24.004" style="fill:#333;fill-opacity:1;stroke:none;fill-rule:nonzero"/>
   <path d="M 24,24 36.07,20.766 24.32,25.207 M 23.996,24" style="fill:#333;fill-opacity:1;stroke:none;fill-rule:nonzero"/>
   <path d="M 24,24 11.93,27.238 23.68,22.797 M 24.004,24" style="fill:#333;fill-opacity:1;stroke:none;fill-rule:nonzero"/>
   <path d="M 24,24 30.25,34.824 22.918,24.625 M 24,24" style="fill:#333;fill-opacity:1;stroke:none;fill-rule:nonzero"/>
   <path d="M 24,24 17.75,13.176 25.082,23.375 M 24,24" style="fill:#333;fill-opacity:1;stroke:none;fill-rule:nonzero"/>
   <path d="M 24,24 34.824219,17.75 24.625,25.082031 M 24,24" style="fill:#333;fill-opacity:1;stroke:none;fill-rule:nonzero"/>
   <path d="M 24,24 13.176,30.25 23.375,22.922 M 24,24" style="fill:#333;fill-opacity:1;stroke:none;fill-rule:nonzero"/>
   <path d="m 24,24 8.84,8.84 -9.723,-7.957 M 24,24" style="fill:#784420;fill-opacity:1;stroke:none;fill-rule:nonzero"/>
   <path d="m 24,24 -8.84,-8.84 9.723,7.957 M 24,24" style="fill:#784420;fill-opacity:1;stroke:none;fill-rule:nonzero"/>
   <path d="m 24,24 8.84,-8.84 -7.957,9.723 M 24,24" style="fill:#784420;fill-opacity:1;stroke:none;fill-rule:nonzero"/>
   <path d="m 24,24 -8.84,8.836 7.957,-9.723 M 24,24" style="fill:#784420;fill-opacity:1;stroke:none;fill-rule:nonzero"/>
   <path d="M 24,24 34.824,30.25 23.375,25.082 M 24,24" style="fill:#333;fill-opacity:1;stroke:none;fill-rule:nonzero"/>
   <path d="M 24,24 13.176,17.75 24.625,22.918 M 24,24" style="fill:#333;fill-opacity:1;stroke:none;fill-rule:nonzero"/>
   <path d="M 24,24 30.25,13.175781 25.082031,24.625 M 24,24" style="fill:#333;fill-opacity:1;stroke:none;fill-rule:nonzero"/>
   <path d="M 24,24 17.75,34.824 22.918,23.375 M 24,24" style="fill:#333;fill-opacity:1;stroke:none;fill-rule:nonzero"/>
   <path d="M 24,24 36.07,27.234 23.672,25.207 M 23.996,24" style="fill:#333;fill-opacity:1;stroke:none;fill-rule:nonzero"/>
   <path d="M 24,24 11.93,20.766 24.328,22.793 M 24.004,24" style="fill:#333;fill-opacity:1;stroke:none;fill-rule:nonzero"/>
   <path d="M 24,24 27.234,11.93 25.207,24.328 M 24,24.004" style="fill:#333;fill-opacity:1;stroke:none;fill-rule:nonzero"/>
   <path d="M 24,24 20.766,36.07 22.793,23.675 M 24,23.999" style="fill:#333;fill-opacity:1;stroke:none;fill-rule:nonzero"/>
   <path d="m 23.993 24.06 12.496 0 -12.499 1.249 m -0.0001 -1.25" style="fill:#784420;fill-opacity:1;stroke:none;fill-rule:nonzero"/>
   <path d="m 23.993 24.06 0 12.496 -1.249 -12.499 m 1.25 -0.0001" style="fill:#784420;fill-opacity:1;stroke:none;fill-rule:nonzero"/>
   <path d="m 30.25 24 c 0 3.453 -2.797 6.25 -6.25 6.25 -3.453 0 -6.25 -2.797 -6.25 -6.25 0 -3.453 2.801 -6.25 6.25 -6.25 3.453 0 6.25 2.801 6.25 6.25 m 0 0" style="fill:#333;fill-opacity:1;stroke:none;fill-rule:nonzero"/>
   <path d="m 29 24 c 0 2.762 -2.238 5 -5 5 -2.762 0 -5 -2.238 -5 -5 0 -2.762 2.238 -5 5 -5 2.762 0 5 2.238 5 5 m 0 0" style="fill:#aa8600;fill-opacity:1;stroke:none;fill-rule:nonzero"/>
  </g>
  <circle r="2" cy="24" cx="24" style="fill:url(#radialGradient4312);fill-opacity:1;stroke:none;fill-rule:evenodd"/>
  <circle r="3.75" cy="20.5" cx="27.5" style="fill:url(#radialGradient4322);fill-opacity:1;stroke:none"/>
  <path d="m 30.25 13.18 -5 8.672 c 0.746 0.434 1.25 1.223 1.25 2.148 l 10 0 c 0 -4.633 -2.512 -8.66 -6.25 -10.82" style="fill:#f9f9f9;fill-opacity:0.2;stroke:none;fill-rule:nonzero"/>
 </g>
</svg>
